.local/share/icons/Gruvbox-Plus-Dark/panel/22/nutstore-paused-panel.svg

<svg xmlns="http://www.w3.org/2000/svg" width="22" height="22" version="1.1">
 <defs>
  <style id="current-color-scheme" type="text/css">
   .ColorScheme-Text { color:#ebdbb2; } .ColorScheme-Highlight { color:#458588; }
  </style>
 </defs>
 <path style="fill:currentColor;opacity:0.3" class="ColorScheme-Text" d="M 10.417969 4 C 9.8139692 3.99763 9.2273405 4.077868 8.6796875 4.2402344 C 7.8470985 4.5693368 7.1633093 4.8725415 7.9414062 5.2832031 C 9.4168452 6.0540561 10.806699 7.1054805 12.009766 8.4375 C 12.944555 9.472485 13.702774 10.608505 14.300781 11.791016 A 5 5 0 0 1 17 11 A 5 5 0 0 1 17.931641 11.089844 C 17.752962 9.519026 17.111343 7.8511427 15.894531 6.5039062 C 14.38639 4.8341133 12.319919 4.0074625 10.417969 4 z M 17.824219 4.0058594 C 17.620025 3.9870004 17.396821 4.0195289 17.166016 4.0761719 C 16.668105 4.2175657 16.187647 4.5835549 15.720703 4.9726562 C 16.039383 5.2368014 16.349707 5.5162096 16.636719 5.8339844 C 16.747621 5.9567746 16.846588 6.0858856 16.949219 6.2128906 C 17.068715 6.1558726 17.198394 6.1036615 17.353516 6.0683594 C 17.711845 5.9868114 18.320972 6.2183781 18.603516 6.3203125 C 18.979465 6.3267525 19.052863 5.7607567 18.96875 5.3613281 C 18.87035 4.8940897 18.563455 4.5620597 18.371094 4.2480469 C 18.213961 4.0956665 18.028413 4.0247173 17.824219 4.0058594 z M 7.25 6.0234375 C 7.20622 6.0555035 7.1629656 6.0819874 7.1191406 6.1152344 C 3.8086246 8.6269644 1.955267 14.178416 3.625 16.144531 C 5.2412669 18.047691 9.1199446 18.492001 12.214844 17.4375 A 5 5 0 0 1 12 16 A 5 5 0 0 1 13.5 12.429688 C 12.926557 11.255593 12.188305 10.126837 11.267578 9.1074219 C 10.146149 7.8657924 8.8521476 6.8875848 7.4785156 6.1699219 L 7.4765625 6.1699219 L 7.4746094 6.1679688 C 7.4006194 6.1289188 7.325889 6.0698288 7.25 6.0234375 z"/>
 <path style="fill:currentColor" class="ColorScheme-Text" d="m 17.278535,12.009931 c -0.768442,-0.05431 -1.561701,0.113093 -2.279029,0.52722 -1.912976,1.10434 -2.56709,3.550808 -1.46272,5.463557 1.104371,1.912649 3.549375,2.566886 5.462251,1.462546 1.912976,-1.104339 2.569043,-3.548854 1.464672,-5.461604 -0.690232,-1.195406 -1.904435,-1.901203 -3.185174,-1.991719 z m -2.279029,1.991719 h 0.999882 v 3.999058 h -0.999882 z m 2.999648,0 h 0.999883 v 3.999058 h -0.999883 z"/>
</svg>

<svg width="22" height="22" version="1.1" xmlns="http://www.w3.org/2000/svg">
  <defs>
    <style id="current-color-scheme" type="text/css">.ColorScheme-Text { color:#ebdbb2; } .ColorScheme-Highlight { color:#458588; } .ColorScheme-NeutralText { color:#fe8019; } .ColorScheme-PositiveText { color:#689d6a; } .ColorScheme-NegativeText { color:#fb4934; }</style>
  </defs>
  <path class="ColorScheme-Text" d="m10.42 4c-0.604-0.00237-1.191 0.07787-1.738 0.2402-0.8326 0.3291-1.516 0.6323-0.7383 1.043 1.475 0.7709 2.865 1.822 4.068 3.154 0.9348 1.035 1.693 2.171 2.291 3.354a5 5 0 0 1 2.699-0.791 5 5 0 0 1 0.9316 0.08984c-0.1787-1.571-0.8203-3.239-2.037-4.586-1.508-1.67-3.575-2.496-5.477-2.504zm7.406 0.005859c-0.2042-0.01886-0.4274 0.01367-0.6582 0.07031-0.4979 0.1414-0.9784 0.5074-1.445 0.8965 0.3187 0.2641 0.629 0.5436 0.916 0.8613 0.1109 0.1228 0.2099 0.2519 0.3125 0.3789 0.1195-0.05702 0.2492-0.1092 0.4043-0.1445 0.3583-0.08155 0.9675 0.15 1.25 0.252 0.3759 0.00644 0.4493-0.5596 0.3652-0.959-0.0984-0.4672-0.4053-0.7993-0.5977-1.113-0.1571-0.1524-0.3427-0.2233-0.5469-0.2422zm-10.57 2.018c-0.04378 0.03207-0.08703 0.05855-0.1309 0.0918-3.311 2.512-5.164 8.063-3.494 10.03 1.616 1.903 5.495 2.347 8.59 1.293a5 5 0 0 1-0.2148-1.438 5 5 0 0 1 1.5-3.57c-0.5734-1.174-1.312-2.303-2.232-3.322-1.121-1.242-2.415-2.22-3.789-2.938h-0.001953l-0.001953-0.001953c-0.07399-0.03905-0.1487-0.09814-0.2246-0.1445z" fill="currentColor" opacity=".3"/>
  <path class="ColorScheme-Text" d="m17.28 12.01c-0.7684-0.05431-1.562 0.1131-2.279 0.5272-1.913 1.104-2.567 3.551-1.463 5.464 1.104 1.913 3.549 2.567 5.462 1.463 1.913-1.104 2.569-3.549 1.465-5.462-0.6902-1.195-1.904-1.901-3.185-1.992zm-2.279 1.992h0.9999v3.999h-0.9999zm3 0h0.9999v3.999h-0.9999z" fill="currentColor"/>
</svg>
